X: 45
%
U:~=!turn!
T: The Bob of Fettercairn
C:
O:Scotland
B:Keith Norman MacDonald : "The Skye collection of the best reels & strathspeys extant" : 1887
Z:Ralph Palmer
R:Reel
M:C|
L:1/8
K:G
(B/c/) !segno!| {/^c}dB{/F}GB {/c}dB{/F}GB | {/^c}dB{/c}dg Tf2 {/^c}(df) | ecAc ecAc | {/f}edef | {/f}(ga)ge | {/^c}dB{/F}GB {/c}dBGB |
{/^c}dB{/c}dg Tf2 {/c}(df) | {/^g}aefd edBg | A/A/A (Bd) {gf}e2 {ef}g2 || dgBg dgBg | dgBg Tf2 {/^c}(df) | ea^ca eaca |
{/f}edef {ef}gage | {/^c}dgBg dgBg | dgBg {ag}f2 {/^c}(df) | {/^g}aefd edBg | A/A/A (Bd) {gf}e2 {ef}g2 !segno!|]


